dist/img/advantages/img-02.svg

<svg width="81" height="81" viewBox="0 0 81 81" fill="none" xmlns="http://www.w3.org/2000/svg">
<rect width="80" height="80" transform="translate(0.5 0.515625)" fill="white"/>
<path d="M68.1442 22.3135C68.1442 22.3135 65.2049 13.8257 57.227 12.904C49.249 11.9822 35.4307 16.6294 25.5824 14.3634C15.6958 12.0974 9.85548 17.82 11.4587 37.8682C13.0619 57.9163 13.6727 66.0585 25.8496 68.1708C38.0265 70.2832 58.1813 61.8338 65.0523 51.5024C71.9232 41.1711 69.8619 25.6165 68.1442 22.3135Z" fill="#42BFB9"/>
<path d="M34.0943 49.9626C51.119 51.3069 52.0733 33.1022 53.9437 26.1506C54.8217 22.8477 52.9513 17.586 50.7373 13.0156C42.9502 13.7838 33.1018 16.0881 25.5438 14.3599C24.8567 14.2062 24.1696 14.091 23.5206 14.0142C24.5894 16.741 25.1239 20.5817 24.1696 25.8818C21.5739 40.0154 17.0696 48.6568 34.0943 49.9626Z" fill="#5EC5BE"/>
<path d="M33.2552 40.784C35.7218 40.784 37.7213 38.7721 37.7213 36.2904C37.7213 33.8087 35.7218 31.7969 33.2552 31.7969C30.7886 31.7969 28.7891 33.8087 28.7891 36.2904C28.7891 38.7721 30.7886 40.784 33.2552 40.784Z" fill="#E6E7E8"/>
<path d="M33.2587 39.2883C34.9031 39.2883 36.2361 37.9471 36.2361 36.2926C36.2361 34.6381 34.9031 33.2969 33.2587 33.2969C31.6143 33.2969 30.2812 34.6381 30.2812 36.2926C30.2812 37.9471 31.6143 39.2883 33.2587 39.2883Z" fill="#414042"/>
<path d="M11.4204 37.9053C12.9855 57.9151 13.6344 66.0957 25.8113 68.208C34.1328 69.6675 46.1951 66.1341 55.1656 60.4883C55.1656 60.4883 31.3844 66.3261 22.1468 59.4513C14.207 53.5752 12.0312 27.6124 15.9247 15.8984C12.222 18.971 10.4661 25.8457 11.4204 37.9053Z" fill="#02ABA0"/>
</svg>

<svg width="81" height="81" fill="none" xmlns="http://www.w3.org/2000/svg"><path fill="#fff" d="M.5.516h80v80H.5z"/><path d="M68.144 22.314s-2.94-8.488-10.917-9.41c-7.978-.922-21.796 3.725-31.645 1.46-9.886-2.267-15.727 3.456-14.123 23.504 1.603 20.048 2.214 28.19 14.39 30.303 12.177 2.112 32.332-6.337 39.203-16.669 6.871-10.33 4.81-25.886 3.092-29.189z" fill="#42BFB9"/><path d="M34.094 49.963c17.025 1.344 17.98-16.86 19.85-23.812.878-3.303-.993-8.565-3.207-13.135-7.787.768-17.635 3.072-25.193 1.344a20.245 20.245 0 00-2.023-.346c1.068 2.727 1.603 6.568.649 11.868-2.596 14.133-7.1 22.775 9.924 24.08z" fill="#5EC5BE"/><path d="M33.255 40.784c2.467 0 4.466-2.012 4.466-4.494 0-2.481-2-4.493-4.466-4.493s-4.466 2.012-4.466 4.493c0 2.482 2 4.494 4.466 4.494z" fill="#E6E7E8"/><path d="M33.259 39.288a2.987 2.987 0 002.977-2.995 2.987 2.987 0 00-2.977-2.996 2.987 2.987 0 00-2.978 2.996 2.987 2.987 0 002.978 2.995z" fill="#414042"/><path d="M11.42 37.905c1.566 20.01 2.214 28.19 14.391 30.303 8.322 1.46 20.384-2.074 29.355-7.72 0 0-23.782 5.838-33.02-1.037-7.939-5.876-10.115-31.839-6.221-43.553-3.703 3.073-5.459 9.948-4.505 22.007z" fill="#02ABA0"/></svg>
